X: 1
T: Jane's Thirtieth
C: Alastair Wood
N: For the Orwell Lodge Strathspey
R: strathspey
Z: 2013 John Chambers <jc:trillian.mit.edu>
M: C
L: 1/16
K: Bb
Bc |\
"Bb"d3c B3A "Eb"BE3 E3E | "Bb"D3F BABd "Cm"c4 "F7"c2Bc |\
"Gm"d3c B3G "Dm"Ff3 f3e | "Gm"d^cde "F7"=c3d "Bb"B6 :|
|: BA |\
"Gm"G3^F G3B "F"AF3 F4 | "Eb"EDEF G3E "D7"Dd3 d3c |\
"Gm"Bb3 b2ag "Bb"fb3 "Cm"g3e | "Gm"d^cde "F7"=c3d "Bb"B6 :|
